SVG_Azure_Grouped/Networking/Virtual Network.svg

<?xml version="1.0" encoding="UTF-8" standalone="no"?>
<!-- Generated by Microsoft Visio, SVG Export Virtual Network.svg Page-1 -->

<svg
   xmlns:dc="http://purl.org/dc/elements/1.1/"
   xmlns:cc="http://creativecommons.org/ns#"
   xmlns:rdf="http://www.w3.org/1999/02/22-rdf-syntax-ns#"
   xmlns:svg="http://www.w3.org/2000/svg"
   xmlns="http://www.w3.org/2000/svg"
   xmlns:sodipodi="http://sodipodi.sourceforge.net/DTD/sodipodi-0.dtd"
   xmlns:inkscape="http://www.inkscape.org/namespaces/inkscape"
   width="0.78750169in"
   height="0.47237349in"
   viewBox="0 0 56.70003 34.010825"
   xml:space="preserve"
   class="st4"
   version="1.1"
   id="svg51"
   sodipodi:docname="Virtual Network.svg"
   style="font-size:12px;overflow:visible;color-interpolation-filters:sRGB;fill:none;fill-rule:evenodd;stroke-linecap:square;stroke-miterlimit:3"
   inkscape:version="0.92.5 (2060ec1f9f, 2020-04-08)"><metadata
   id="metadata55"><rdf:RDF><cc:Work
       rdf:about=""><dc:format>image/svg+xml</dc:format><dc:type
         rdf:resource="http://purl.org/dc/dcmitype/StillImage" /></cc:Work></rdf:RDF></metadata><sodipodi:namedview
   pagecolor="#ffffff"
   bordercolor="#666666"
   borderopacity="1"
   objecttolerance="10"
   gridtolerance="10"
   guidetolerance="10"
   inkscape:pageopacity="0"
   inkscape:pageshadow="2"
   inkscape:window-width="640"
   inkscape:window-height="480"
   id="namedview53"
   showgrid="false"
   inkscape:zoom="1.7347635"
   inkscape:cx="37.801057"
   inkscape:cy="22.661049"
   inkscape:window-x="0"
   inkscape:window-y="0"
   inkscape:window-maximized="0"
   inkscape:current-layer="svg51" />
	<style
   type="text/css"
   id="style2">
	<![CDATA[
		.st1 {fill:url(#grad0-6);stroke:none;stroke-linecap:butt;stroke-width:34}
		.st2 {fill:#50e6ff;stroke:none;stroke-linecap:butt;stroke-width:34}
		.st3 {fill:#1490df;stroke:none;stroke-linecap:butt;stroke-width:34}
		.st4 {fill:none;fill-rule:evenodd;font-size:12px;overflow:visible;stroke-linecap:square;stroke-miterlimit:3}
	]]>
	</style>

	<defs
   id="Patterns_And_Gradients">
		<linearGradient
   id="grad0-6"
   x1="-0.5212227"
   y1="195.7425"
   x2="14.462682"
   y2="195.7425"
   gradientTransform="scale(2.0438812,0.48926522)"
   gradientUnits="userSpaceOnUse">
			<stop
   offset="0"
   stop-color="#5e9624"
   stop-opacity="1"
   id="stop4" />
			<stop
   offset="0.24"
   stop-color="#6fb02a"
   stop-opacity="1"
   id="stop6" />
			<stop
   offset="0.5"
   stop-color="#7cc52f"
   stop-opacity="1"
   id="stop8" />
			<stop
   offset="0.755"
   stop-color="#83d232"
   stop-opacity="1"
   id="stop10" />
			<stop
   offset="1"
   stop-color="#86d633"
   stop-opacity="1"
   id="stop12" />
		</linearGradient>
	</defs>
	<g
   id="g49"
   transform="translate(-33.995749,-34.000435)">
		<title
   id="title16">Page-1</title>
		<g
   id="group17554-1"
   transform="translate(34,-34.0157)">
			<title
   id="title18">Virtual Network.17554</title>
			<g
   id="group17555-2">
				<title
   id="title20">Sheet.17555</title>
				<g
   id="shape17556-3"
   transform="translate(14.2109,-14.4228)">
					<title
   id="title22">Sheet.17556</title>
					<path
   d="m 29.56,99.42 a 3.64766,3.65555 0 1 1 -3.65,-3.65 3.64451,3.65239 0 0 1 3.65,3.65 z M 14.23,95.79 a 3.64766,3.65555 -180 1 0 3.65,3.65 3.64451,3.65239 -180 0 0 -3.65,-3.65 z m -11.65,0 A 3.64766,3.65555 -180 1 0 6.23,99.45 3.64766,3.65555 -180 0 0 2.58,95.8 Z"
   class="st1"
   id="path24"
   inkscape:connector-curvature="0"
   style="fill:url(#grad0-6);stroke:none;stroke-width:34;stroke-linecap:butt" />
				</g>
				<g
   id="shape17557-7"
   transform="translate(0.0125992)">
					<title
   id="title27">Sheet.17557</title>
					<path
   d="m 19.45,99.66 -2.09,2.09 a 0.94499,0.947033 0 0 1 -1.33559,0 L 0.55,86.3 a 1.88998,1.89407 0 0 1 0,-2.68 l 2.09,-2.1 16.81,16.79 a 0.94499,0.947033 0 0 1 0,1.34163 z"
   class="st2"
   id="path29"
   inkscape:connector-curvature="0"
   style="fill:#50e6ff;stroke:none;stroke-width:34;stroke-linecap:butt" />
				</g>
				<g
   id="shape17558-9"
   transform="translate(0,-13.6775)">
					<title
   id="title32">Sheet.17558</title>
					<path
   d="m 17.06,81.98 2.11,2.11 a 0.94499,0.947033 0 0 1 0,1.34163 L 2.65,102.03 0.55,99.94 a 1.88998,1.89407 0 0 1 0,-2.68 L 15.74,82 a 0.94499,0.947033 0 0 1 1.33874,0 z"
   class="st3"
   id="path34"
   inkscape:connector-curvature="0"
   style="fill:#1490df;stroke:none;stroke-width:34;stroke-linecap:butt" />
				</g>
				<g
   id="shape17559-11"
   transform="translate(36.9341,-0.00631355)">
					<title
   id="title37">Sheet.17559</title>
					<path
   d="m 17.09,81.52 2.09,2.1 a 1.88998,1.89407 0 0 1 0,2.68 L 3.7,101.75 a 0.94499,0.947033 0 0 1 -1.33559,0 L 0.28,99.65 a 0.94499,0.947033 0 0 1 0,-1.33847 z"
   class="st2"
   id="path39"
   inkscape:connector-curvature="0"
   style="fill:#50e6ff;stroke:none;stroke-width:34;stroke-linecap:butt" />
				</g>
				<g
   id="shape17560-13"
   transform="translate(37.2365,-13.6869)">
					<title
   id="title42">Sheet.17560</title>
					<path
   d="M 18.89,99.94 16.8,102.03 0.28,85.43 a 0.94499,0.947033 0 0 1 0,-1.33847 L 2.39,81.98 a 0.94499,0.947033 0 0 1 1.33559,0 L 18.91,97.24 a 1.88998,1.89407 0 0 1 -0.01,2.68 z"
   class="st3"
   id="path44"
   inkscape:connector-curvature="0"
   style="fill:#1490df;stroke:none;stroke-width:34;stroke-linecap:butt" />
				</g>
			</g>
		</g>
	</g>
</svg>

<?xml version="1.0" encoding="UTF-8" standalone="no"?>
<!DOCTYPE svg PUBLIC "-//W3C//DTD SVG 1.1//EN" "http://www.w3.org/Graphics/SVG/1.1/DTD/svg11.dtd">
<!-- Generated by Microsoft Visio, SVG Export Virtual Network.svg Page-1 -->
<svg xmlns="http://www.w3.org/2000/svg" xmlns:xlink="http://www.w3.org/1999/xlink" xmlns:ev="http://www.w3.org/2001/xml-events"
		width="1.73185in" height="1.4171in" viewBox="0 0 124.693 102.031" xml:space="preserve" color-interpolation-filters="sRGB"
		class="st4">
	<style type="text/css">
	<![CDATA[
		.st1 {fill:url(#grad0-6);stroke:none;stroke-linecap:butt;stroke-width:34}
		.st2 {fill:#50e6ff;stroke:none;stroke-linecap:butt;stroke-width:34}
		.st3 {fill:#1490df;stroke:none;stroke-linecap:butt;stroke-width:34}
		.st4 {fill:none;fill-rule:evenodd;font-size:12px;overflow:visible;stroke-linecap:square;stroke-miterlimit:3}
	]]>
	</style>

	<defs id="Patterns_And_Gradients">
		<linearGradient id="grad0-6" x1="0" y1="0" x2="1" y2="0" gradientTransform="rotate(-90 0.5 0.5)">
			<stop offset="0" stop-color="#5e9624" stop-opacity="1"/>
			<stop offset="0.24" stop-color="#6fb02a" stop-opacity="1"/>
			<stop offset="0.5" stop-color="#7cc52f" stop-opacity="1"/>
			<stop offset="0.755" stop-color="#83d232" stop-opacity="1"/>
			<stop offset="1" stop-color="#86d633" stop-opacity="1"/>
		</linearGradient>
	</defs>
	<g>
		<title>Page-1</title>
		<g id="group17157-1" transform="translate(34,-34.0157)">
			<title>Virtual Network.17157</title>
			<g id="group17158-2">
				<title>Sheet.17158</title>
				<g id="shape17159-3" transform="translate(14.2109,-14.4228)">
					<title>Sheet.17159</title>
					<path d="M29.56 99.42 A3.64766 3.65555 0 1 1 25.91 95.77 A3.64451 3.65239 0 0 1 29.56 99.42 ZM14.23 95.79 A3.64766
								 3.65555 -180 1 0 17.88 99.44 A3.64451 3.65239 -180 0 0 14.23 95.79 ZM2.58 95.79 A3.64766 3.65555
								 -180 1 0 6.23 99.45 A3.64766 3.65555 -180 0 0 2.58 95.8 L2.58 95.79 Z" class="st1"/>
				</g>
				<g id="shape17160-7" transform="translate(0.0125992,-1.7053E-13)">
					<title>Sheet.17160</title>
					<path d="M19.45 99.66 L17.36 101.75 a0.94499 0.947033 0 0 1 -1.33559 1.42109E-14 L0.55 86.3 A1.88998 1.89407
								 0 0 1 0.55 83.62 L2.64 81.52 L19.45 98.31 a0.94499 0.947033 0 0 1 -1.42109E-14 1.34163 L19.45 99.66
								 Z" class="st2"/>
				</g>
				<g id="shape17161-9" transform="translate(-2.79776E-13,-13.6775)">
					<title>Sheet.17161</title>
					<path d="M17.06 81.98 L19.17 84.09 a0.94499 0.947033 0 0 1 3.55271E-15 1.34163 L2.65 102.03 L0.55 99.94 A1.88998
								 1.89407 0 0 1 0.55 97.26 L15.74 82 a0.94499 0.947033 0 0 1 1.33874 0 L17.06 81.98 Z" class="st3"/>
				</g>
				<g id="shape17162-11" transform="translate(36.9341,-0.00631355)">
					<title>Sheet.17162</title>
					<path d="M17.09 81.52 L19.18 83.62 A1.88998 1.89407 0 0 1 19.18 86.3 L3.7 101.75 a0.94499 0.947033 0 0 1 -1.33559
								 0 L0.28 99.65 a0.94499 0.947033 0 0 1 -8.65974E-15 -1.33847 L17.09 81.52 Z" class="st2"/>
				</g>
				<g id="shape17163-13" transform="translate(37.2365,-13.6869)">
					<title>Sheet.17163</title>
					<path d="M18.89 99.94 L16.8 102.03 L0.28 85.43 a0.94499 0.947033 0 0 1 -7.21645E-15 -1.33847 L2.39 81.98 a0.94499
								 0.947033 0 0 1 1.33559 -1.42109E-14 L18.91 97.24 A1.88998 1.89407 0 0 1 18.9 99.92 L18.89 99.94
								 Z" class="st3"/>
				</g>
			</g>
		</g>
	</g>
</svg>
